X:1
T:Title
%%score { ( 1 3 ) | ( 2 4 ) }
L:1/8
Q:1/4=100
M:4/4
K:C
V:1 treble nm="Grand Piano"
V:3 treble 
V:2 bass 
V:4 bass 
V:1
 C4 E2 C2 | G6 z2 | G4 B2 G2 | c6 z2 | A2 A2 A2 A2 | [EG]2 [EG]2 [EG]2 [EGA]2 | [DGB]4 [^FA]4 | %7
w: R.~Frank~Lehman * *|||||||
 [B,G]6 z2 | C4 E2 A2 | G6 z2 | ^F4 E2 D2 | G2 [DG]2 [EA]2 [EB]2 | [Ec]4 [EB]2 [A,EA]2 | %13
w: ||||||
 [DGd]2 [DGB]2 [B,G]2 [EGA]2 | z2 .[Ec]2 z4 | [B,G]6 z2 | [EG]4 [FA]2 [EG]2 | [DF]4 [EG]2 [DF]2 | %18
w: |||||
 [CE]2 [CE]2 [DF]2 [CE]2 | [B,D]6 z2 | [GB]4 [FA]2 [EG]2 | [FA]4 [EG]4 | [DF]2 [DF]2 [B,G]2 [DF]2 | %23
w: |||||
 [CE]6 z2 | C4 E4 | G4 [CE_B]4 | [CFA]2 [CFA]2 [DFd]2 [DFc]2 | G4 z4 | [Cc]4 [CG]4 | A4 d4 | %30
w: |||||||
 c2 B2 [CFA]2 [DFB]2 | [Ec]6 z2 | z2 C2 ^FGec | [EG]6 z2 | [G,EG]2 [Ec]2 [Ed]2 [Ec]2 | %35
w: |||||
 [Fc]4 [FB]2 z2 | z2 F2 ^FGfd | B6 z2 | [FB]2 [FA]2 [EG]2 [DF]2 | [_EA]4 [G,=EG]2 z2 | %40
w: |||||
 z2 C2 ^FGec | [EG]6 z2 | [CE_B]2 [CFB]2 [CGB]2 [CEB]2 | [CF_B]4 [CFA]2 z z/ A/ | A4 B3 B | %45
w: |||||
 c2 c2 z2 c2 | [Ad]4 [Ac]2 [Ad]2 | .[^Ge]2 .[Ge]2 z2 [=Ge]2 | [Ff]4 [Ge]2 [Ad]2 | g2 e2 c2 d2 | %50
w: |||||
 z4 d4 | [CEc]6 z2 | z2 C2 ^FGec | [EG]6 z2 | [G,EG]2 [Ec]2 [Ed]2 [Ec]2 | [Fc]4 [FB]2 z2 | %56
w: ||||||
 z2 F2 ^FGfd | B6 z2 | [FB]2 [FA]2 [EG]2 [DF]2 | [_EA]4 [G,=EG]2 z2 | z2 C2 ^FGec | [EG]6 z2 | %62
w: ||||||
 [CE_B]2 [CFB]2 [CGB]2 [CEB]2 | _B4 A2 z2 | A2 A>A B2 z2 | c2 c>c d2 z2 | e2 e>e [Ff]2 [Ge][Ad] | %67
w: |||||
 [Gg]4 [DFB]4 | [Ec]6 z2 | [Fc]8 | [Ee]8 |] %71
w: ||||
V:2
 C,4 E,2 C,2 | G,6 z2 | G,4 B,2 G,2 | C6 z2 | [F,CF]2 [F,CF]2 [F,CF]2 [F,CF]2 | %5
 [C,C]2 [C,C]2 [C,C]2 C,2 | D,4 z2 C2 | G,6 z2 | C,4 E,2 A,2 | G,6 z2 | %10
 [D,A,C]4 [D,C]2- [D,^F,C]2 | [E,G,B,]2 [B,,G,]2 [C,G,]2 [B,,^G,]2 | [A,,A,]4 [B,,G,]2 C,2 | %13
 B,,2 B,,2 E,2 C,2 | D,2 z D D,3 D, | G,6 z2 | z2 G,2 G,2 G,2 | z2 G,2 G,2 G,2 | z2 G,2 G,2 G,2 | %19
 G,,2 B,,2 D,2 G,2 | z2 G,2 G,2 G,2 | z2 G,2 G,2 G,2 | z2 G,2 G,2 G,2 | C,2 G,,2 A,,2 B,,2 | %24
 C,4 E,4 | G,4 C,4 | F,2 F,2 D,2 D,2 | G,2 A,2 B,2 G,2 | C,2 D,2 E,2 C,2 | [CF]4 [A,F]4 | %30
 [G,EG]2 [G,DG]2[K:bass] [G,,G,]2 [G,,G,]2 | [C,G,C]6 z2 | C,2 G,2[K:treble] [G,CE]2 [G,CEG]2 | %33
 C,2 G,2 G,2 C>D | C,2 [C,G,]2 [C,G,]2 [C,G,]2 | [D,G,]4 [D,G,]2 z2 | %36
 G,,2 [G,B,]2[K:treble] [G,B,F]2 [G,B,F]2 | G,,2 [G,D]2 [G,D]2 G,2 | %38
 [G,,G,]2 [G,,G,]2 [G,,G,]2 [G,,G,]2 | [C,^F,]4 C,2 z2 | C,2 G,2[K:treble] [G,CE]2 [G,CEG]2 | %41
 C,2 G,2 G,2 z A | C,2 D,2 E,2 C,2 | F,4 F,2 z z/ A,/ | [E,A,]4 B,3 B, | C2 C2 z2 C2 | %46
 [F,C]4 [F,A,]2 [F,A,]2 | [E,B,]2 [E,B,]2 z2 [A,^C]2 | [D,D]4 [E,^C]2 [F,D]2 | %49
 [G,EG]2 [G,CG]2[K:bass] [A,E]2 [F,G]2 | [G,C]4 z4 | C,6 z2 | C,2 G,2[K:treble] [G,CE]2 [G,CEG]2 | %53
 z4 z2 C2 | C,2 [C,G,]2 [C,G,]2 [C,G,]2 | [D,G,]4 [D,G,]2 z2 | %56
 G,,2 [G,B,]2[K:treble] [G,B,F]2 [G,B,F]2 | G,,2 [G,D]2 [G,D]2 G,2 | %58
 [G,,G,]2 [G,,G,]2 [G,,G,]2 [G,,G,]2 | [C,^F,]4 C,2 z2 | C,2 G,2[K:treble] [G,CE]2 [G,CEG]2 | %61
 C,2 G,2 G,2 z A | C,2 D,2 E,2 C,2 | [F,CF]4 [F,CF]2 z2 | [F,A,C]2 [F,A,C]>[F,A,C] [E,^G,E]2 z2 | %65
 [A,E]2 [A,E]>[A,E] [G,B,G]2 z2 | [CG]2 [A,^CG]>[A,CG][K:bass] [D,D]2 [E,C][F,D] | %67
 [G,E]4 [G,,G,]4 | [C,G,C]6 z2 | [F,A,]8 | [C,G,C]8 |] %71
V:3
 x8 | x8 | x8 | x8 | x8 | x8 | z4 D2 z2 | x8 | x8 | x8 | x8 | x8 | x8 | x8 | %14
 [DGB]2 G-[GB] [D^FB]3 [CFA] | x8 | x8 | x8 | x8 | x8 | x8 | x8 | x8 | G,2 z2 z4 | x8 | x8 | x8 | %27
 [DB]4- [DFB]4 | E2 F2 z2 E2 | z2 E,2 z2 D,2 | x8 | x8 | [EG]4 z4 | z2 C2 C2 E>F | x8 | x8 | %36
 G4 z4 | z2 F2 F2 G2 | x8 | x8 | [EG]4 z4 | z2 C2 C2 .[CEG]2 | x8 | x8 | x8 | x8 | x8 | x8 | x8 | %49
 x8 | e4 z2 F2 | x8 | [EG]4 z4 | z2 C2 C2 E>F | x8 | x8 | G4 z4 | z2 F2 F2 G2 | x8 | x8 | %60
 [EG]4 z4 | z2 C2 C2 .[CEG]2 | x8 | x8 | x8 | x8 | x8 | x8 | x8 | x8 | x8 |] %71
V:4
 x8 | x8 | x8 | x8 | x8 | x8 | z4 D,4 | x8 | x8 | x8 | z4 G,2 z2 | x8 | x8 | x8 | z2 D,2 z4 | x8 | %16
 G,,8 | G,,8 | G,,8 | x8 | G,,8 | G,,8 | G,,8 | x8 | x8 | x8 | x8 | x8 | x8 | F,2 z2 F,2 z2 | %30
 x4[K:bass] x4 | x8 | x4[K:treble] x4 | z4 z2 [C,G,]2 | x8 | x8 | x4[K:treble] x4 | x8 | x8 | x8 | %40
 x4[K:treble] x4 | z4 z2 C,2 | x8 | x8 | x8 | x8 | x8 | x8 | x8 | z4[K:bass] C4 | %50
 G4- [G,,-G,-B,-G]2 [G,,G,B,]2 | x8 | x4[K:treble] x4 | C,2 G,2 G,2 [C,G,]->[C,G,D] | x8 | x8 | %56
 x4[K:treble] x4 | x8 | x8 | x8 | x4[K:treble] x4 | z4 z2 C,2 | x8 | x8 | x8 | x8 | x4[K:bass] x4 | %67
 x8 | x8 | x8 | x8 |] %71

